!!!OTL: Der Mord im Walde (4-28), S. 40
!!!id: P0589
**kern
*clefG2
*k[f#]
*G:
{4d
4d
4g
=1
2.g
4b
4b
4a
=2
2b}
4r
=3
{8g
8b
=4
4cc
4b
8b
8a
4g
=5
2f#
4g}
=6
{4d
4d
4g
=7
2.g
4b
4b
4a
=8
2b}
4r
=9
{8b
8a
=10
2b
4r
8b
8g
=11
2b
4r
8b
8dd
=12
4.dd
8cc
4b
2a}
=13
{8g
8b
=14
4cc
4b
8b
8a
4g
=15
2f#
4g}
=16
{8b
8a
=17
2g
4g
2g
4b
=18
8b
8a
4a
4b}
2r
=19
{8g
8b
=20
4cc
4b
8b
8a
4g
=21
2f#
4g}
==
*-
!!!minrhy: 8
!!!meters: FREI]  ZZ[7 interpreted as [0/4, 0/4]
!!!cut: Der Mord im Walde (4-28), S. 40
!!!reg: Lothringen
!!!trd: PINCK, Louis: Verklingende Weisen Bd 4, Kassel 1939
!!!rhy1: X_X_X_  X__.X_X_X_  X__0_
!!!rhy2: XX  X_X_XXX_  X__X_
!!!key: P0589  08  G FREI]  ZZ[7
!!!mod: SECHSTONSKALA DUR ?]  AMBITUS[8
!!!kad: 3132131
!!!akz: -513_14-7_-513_3335_14-7_313_14-7_
!!!fot: 'a__b__a__c__b__aw_b__
!!!for: 'a__b__a__c__b__d__b__
!!!fok: '/__^__/__Sd_^__V__^__
!!!fkt: Liebeslied, Standesunterschied, Mord
!! LOTH VKL
!! PR[17] 2K[4] 2G[23] 3K[10] 3G[2] 4A[0] 4Ü[0] 5A[0] 6K[0] 6G[0]
!! 7K[0] 7G[0] 8A[0] MEHR[0] SI[40] ABS[48] SR[27] SP[13]
!! ST[0] 2k[2] 2g[29] 3k[13] 3g[0] 4d[0] 4ü[0] 5d[0] 6k[0] 6g[0]
!! 7k[0] 7g[0] 8d[0] mehr[0] si[44] dm[-4] sr[31] sp[13]
!! 1F[23] 2F[60] 3F[15] 4F[0] LF[0] 2P[0] 3P[2] 4P[0] TRI[0] DF[4] AB[52]
!! TF[0] U3K[0] U3[0] U4[0] U4Ü[0] U5[0] U6K[0] U6[0] U7K[0] U7[0]
!! N1[20] N2K[0] N2[24] N3K[0] N3[37] N4[6] N4Ü[0] N5[12] N6K[0] N6[0]
!!!n7k: 0] N7[0] O1[0] O2K[0] O2[0] O3K[0] O3[0] HÖ[0
